icons/1_Primary/HEY.svg

<svg xmlns="http://www.w3.org/2000/svg" width="1024" height="1024" fill="none">
   <g clip-path="url(#a)">
      <path fill="#8C72BD" d="M512 1024c282.77 0 512-229.23 512-512S794.77 0 512 0 0 229.23 0 512s229.23 512 512 512Z"/>
      <path fill="#fff" d="M826.46 414.41a5.5 5.5 0 0 1 5.42 8.41l-50.44 109a51.1 51.1 0 0 0-3.85 17.76v47.69a9.256 9.256 0 0 1-5.796 8.515 9.284 9.284 0 0 1-3.554.675H736a9.274 9.274 0 0 1-6.555-2.715 9.274 9.274 0 0 1-2.715-6.555v-47.65a49.415 49.415 0 0 0-3.93-17.76l-30.53-66.38a15.702 15.702 0 0 0-13.12-8.49h-47.22a9.256 9.256 0 0 0-8.515 5.796 9.284 9.284 0 0 0-.675 3.554v11.47a9.348 9.348 0 0 0 9.27 9.35h34.8a9.266 9.266 0 0 1 9.27 9.27v23.88a9.27 9.27 0 0 1-9.27 9.27H632a9.347 9.347 0 0 0-9.27 9.35v15.71a9.348 9.348 0 0 0 9.27 9.35h57.67a9.266 9.266 0 0 1 9.27 9.27v23.88a9.27 9.27 0 0 1-9.27 9.27H581a9.274 9.274 0 0 1-6.555-2.715 9.274 9.274 0 0 1-2.715-6.555v-57.73a9.254 9.254 0 0 0-2.771-6.532 9.268 9.268 0 0 0-6.579-2.658h-38.63a9.345 9.345 0 0 0-6.386 2.859 9.355 9.355 0 0 0-2.614 6.491v57.67a9.27 9.27 0 0 1-9.27 9.27h-32.17a9.35 9.35 0 0 1-9.35-9.27v-28.2c17.13-59.24 17.13-99 0-120.83v-24.45a9.35 9.35 0 0 1 9.35-9.27h32.21a9.266 9.266 0 0 1 8.88 9.27v52.87a9.43 9.43 0 0 0 9.35 9.35h38.65a9.35 9.35 0 0 0 9.35-9.35v-52.87a9.267 9.267 0 0 1 9.27-9.27h133.25a14 14 0 0 1 12.41 8.72l7.86 22.63c1.73 4.87 4.48 12.73 6.13 17.6l8.41 25.22a41.62 41.62 0 0 0 3.77 8.8 44.734 44.734 0 0 0 3.69-8.72l8.8-25.38 6.29-17.52 7.86-22.63a13.996 13.996 0 0 1 12.33-8.72h34.65-.01ZM450.6 455.5c18.15 20.58 13.91 69.5-13.27 145.5a7.999 7.999 0 0 1-14.683.705 8 8 0 0 1-.397-6.045c34.1-95.3 22.86-122.33 16.42-129.55a15.707 15.707 0 0 0-15.71-3.77 59.162 59.162 0 0 0-31.43 22.55c11.23 45 19.48 96.48 5.42 117a20.66 20.66 0 0 1-15.08 9.27 14.607 14.607 0 0 1-12.73-5.42c-15.16-18-7.31-83.44.55-112.27a50.152 50.152 0 0 1 4.71-11.31c-.79-3.06-1.65-6.21-2.51-9.43-14.46-52.09-37.63-91.84-45.88-91.84-6.36 4-23 39.28 15.32 143.38a8 8 0 0 1-14.77 6.13c-39.52-85.79-58.3-110.7-65.37-117.85-2.75 13.2-4.4 52.48 42.74 138.9a7.998 7.998 0 0 1-8.77 11.506 8 8 0 0 1-4.9-3.256c-22.63-33.94-52.64-78.88-64.66-91.14-1.34 12.65 2.67 50.2 43.53 112.19a8.003 8.003 0 0 1-4.527 12.879 8.015 8.015 0 0 1-8.473-3.609c-29.07-37.24-44-46-49.18-48.16.63 9.82 11.47 42 36.22 68.82 16.58 17.91 43.92 37.87 80.22 30.8a7.999 7.999 0 0 1 9.385 6.325 8.001 8.001 0 0 1-6.325 9.385 98.586 98.586 0 0 1-18.23 1.73c-43.68 0-73.77-31.5-88.78-52-18.54-25-33.55-61.83-26.4-75a13.008 13.008 0 0 1 4.377-4.667 13.01 13.01 0 0 1 6.073-2.013 36.056 36.056 0 0 1 21.68 9c-17.6-40.07-18.23-66.94-12.57-77.62a11.856 11.856 0 0 1 10.06-6.84c6.68-.31 12.49 3 31.43 28.91-15.71-48-9.27-70.32-6-77.47a11.712 11.712 0 0 1 10.68-7.31c4.79.08 15.16 0 44.86 54.37-7.7-47.92 1.1-73.22 14.61-81.08a15.715 15.715 0 0 1 14.46-.63c21.61 9 43.76 63.64 54.05 99.78a70.087 70.087 0 0 1 32.37-19.25 30.993 30.993 0 0 1 31.48 8.4Zm-69 57.43c-6.44 33.94-6.44 75.34-.55 82.34a4.995 4.995 0 0 0 2.67-2.28c3.01-4.17 10.08-21.37-2.1-80.06h-.02Z"/>
   </g>
   <defs>
      <clipPath id="a">
         <path fill="#fff" d="M0 0h1024v1024H0z"/>
      </clipPath>
   </defs>
</svg>

<svg width="1024" height="1024" viewBox="0 0 1024 1024" fill="none" xmlns="http://www.w3.org/2000/svg">
<g clip-path="url(#clip0_2_2400)">
<path d="M512 1024C794.77 1024 1024 794.77 1024 512C1024 229.23 794.77 0 512 0C229.23 0 0 229.23 0 512C0 794.77 229.23 1024 512 1024Z" fill="#8C72BD"/>
<path d="M826.46 414.41C827.504 414.259 828.568 414.41 829.528 414.847C830.487 415.284 831.301 415.987 831.872 416.873C832.443 417.76 832.748 418.791 832.749 419.845C832.751 420.9 832.449 421.932 831.88 422.82L781.44 531.82C779.106 537.462 777.802 543.477 777.59 549.58V597.27C777.58 598.487 777.33 599.691 776.854 600.811C776.379 601.932 775.687 602.948 774.819 603.801C773.951 604.655 772.923 605.329 771.794 605.785C770.665 606.241 769.458 606.47 768.24 606.46H736C733.542 606.46 731.184 605.483 729.445 603.745C727.707 602.006 726.73 599.648 726.73 597.19V549.54C726.53 543.428 725.198 537.406 722.8 531.78L692.27 465.4C691.014 462.963 689.143 460.897 686.841 459.408C684.539 457.918 681.888 457.057 679.15 456.91H631.93C630.713 456.92 629.51 457.17 628.389 457.646C627.268 458.121 626.252 458.813 625.399 459.681C624.545 460.55 623.871 461.577 623.415 462.706C622.959 463.835 622.73 465.042 622.74 466.26V477.73C622.74 480.196 623.714 482.562 625.451 484.313C627.187 486.064 629.544 487.059 632.01 487.08H666.81C669.269 487.08 671.627 488.056 673.365 489.795C675.104 491.533 676.08 493.891 676.08 496.35V520.23C676.08 522.688 675.104 525.046 673.365 526.785C671.627 528.523 669.269 529.5 666.81 529.5H632C629.534 529.521 627.177 530.515 625.441 532.266C623.704 534.018 622.73 536.384 622.73 538.85V554.56C622.73 557.026 623.704 559.392 625.441 561.143C627.177 562.894 629.534 563.889 632 563.91H689.67C692.129 563.91 694.487 564.886 696.225 566.625C697.964 568.363 698.94 570.721 698.94 573.18V597.06C698.94 599.518 697.964 601.876 696.225 603.615C694.487 605.353 692.129 606.33 689.67 606.33H581C578.542 606.33 576.184 605.353 574.445 603.615C572.707 601.876 571.73 599.518 571.73 597.06V539.33C571.72 538.112 571.47 536.909 570.994 535.788C570.519 534.668 569.827 533.652 568.959 532.798C568.091 531.945 567.063 531.271 565.934 530.815C564.805 530.359 563.598 530.129 562.38 530.14H523.75C521.332 530.23 519.042 531.255 517.364 532.999C515.686 534.743 514.749 537.069 514.75 539.49V597.16C514.75 599.618 513.774 601.976 512.035 603.715C510.297 605.453 507.939 606.43 505.48 606.43H473.31C470.844 606.43 468.478 605.456 466.727 603.72C464.976 601.983 463.981 599.626 463.96 597.16V568.96C481.09 509.72 481.09 469.96 463.96 448.13V423.68C463.981 421.214 464.976 418.856 466.727 417.12C468.478 415.384 470.844 414.41 473.31 414.41H505.52C507.911 414.51 510.17 415.531 511.825 417.259C513.48 418.987 514.402 421.287 514.4 423.68V476.55C514.421 479.023 515.413 481.389 517.162 483.138C518.911 484.887 521.277 485.879 523.75 485.9H562.4C564.88 485.9 567.258 484.915 569.012 483.161C570.765 481.408 571.75 479.03 571.75 476.55V423.68C571.75 421.221 572.727 418.863 574.466 417.125C576.204 415.386 578.562 414.41 581.02 414.41H714.27C716.958 414.518 719.558 415.397 721.759 416.944C723.959 418.49 725.668 420.638 726.68 423.13L734.54 445.76C736.27 450.63 739.02 458.49 740.67 463.36L749.08 488.58C749.994 491.649 751.259 494.601 752.85 497.38C754.385 494.612 755.622 491.689 756.54 488.66L765.34 463.28L771.63 445.76L779.49 423.13C780.497 420.65 782.193 418.51 784.379 416.965C786.564 415.419 789.147 414.533 791.82 414.41H826.47H826.46ZM450.6 455.5C468.75 476.08 464.51 525 437.33 601C436.596 602.965 435.119 604.562 433.218 605.449C431.317 606.335 429.144 606.439 427.167 605.739C425.189 605.039 423.566 603.59 422.647 601.705C421.727 599.82 421.585 597.649 422.25 595.66C456.35 500.36 445.11 473.33 438.67 466.11C436.639 464.118 434.104 462.715 431.337 462.051C428.57 461.387 425.675 461.487 422.96 462.34C410.253 466.122 399.184 474.064 391.53 484.89C402.76 529.89 411.01 581.37 396.95 601.89C395.281 604.456 393.061 606.618 390.453 608.222C387.845 609.825 384.914 610.828 381.87 611.16C379.466 611.379 377.045 610.998 374.823 610.052C372.602 609.106 370.649 607.625 369.14 605.74C353.98 587.74 361.83 522.3 369.69 493.47C370.792 489.521 372.374 485.723 374.4 482.16C373.61 479.1 372.75 475.95 371.89 472.73C357.43 420.64 334.26 380.89 326.01 380.89C319.65 384.89 303.01 420.17 341.33 524.27C342.064 526.213 342.013 528.365 341.188 530.271C340.364 532.177 338.83 533.688 336.912 534.484C334.994 535.28 332.842 535.299 330.91 534.537C328.978 533.774 327.418 532.291 326.56 530.4C287.04 444.61 268.26 419.7 261.19 412.55C258.44 425.75 256.79 465.03 303.93 551.45C304.866 553.254 305.08 555.346 304.528 557.303C303.977 559.259 302.702 560.932 300.962 561.982C299.222 563.032 297.148 563.38 295.16 562.956C293.172 562.533 291.421 561.368 290.26 559.7C267.63 525.76 237.62 480.82 225.6 468.56C224.26 481.21 228.27 518.76 269.13 580.75C269.822 581.598 270.332 582.578 270.629 583.631C270.926 584.684 271.005 585.787 270.859 586.871C270.713 587.956 270.346 588.999 269.782 589.936C269.217 590.873 268.466 591.684 267.575 592.319C266.684 592.954 265.673 593.4 264.603 593.629C263.533 593.857 262.427 593.864 261.355 593.649C260.282 593.433 259.265 593 258.366 592.376C257.468 591.752 256.707 590.95 256.13 590.02C227.06 552.78 212.13 544.02 206.95 541.86C207.58 551.68 218.42 583.86 243.17 610.68C259.75 628.59 287.09 648.55 323.39 641.48C325.474 641.074 327.633 641.512 329.393 642.699C331.153 643.885 332.37 645.721 332.775 647.805C333.181 649.888 332.743 652.047 331.557 653.807C330.37 655.567 328.534 656.784 326.45 657.19C320.441 658.331 314.338 658.91 308.22 658.92C264.54 658.92 234.45 627.42 219.44 606.92C200.9 581.92 185.89 545.09 193.04 531.92C194.088 530.024 195.592 528.42 197.417 527.253C199.242 526.087 201.33 525.395 203.49 525.24C211.519 525.738 219.15 528.906 225.17 534.24C207.57 494.17 206.94 467.3 212.6 456.62C213.503 454.678 214.915 453.016 216.687 451.812C218.458 450.607 220.522 449.905 222.66 449.78C229.34 449.47 235.15 452.78 254.09 478.69C238.38 430.69 244.82 408.37 248.09 401.22C248.955 399.087 250.429 397.255 252.329 395.955C254.228 394.655 256.469 393.944 258.77 393.91C263.56 393.99 273.93 393.91 303.63 448.28C295.93 400.36 304.73 375.06 318.24 367.2C320.424 365.943 322.877 365.23 325.393 365.12C327.91 365.011 330.416 365.508 332.7 366.57C354.31 375.57 376.46 430.21 386.75 466.35C395.582 457.1 406.776 450.443 419.12 447.1C424.63 445.44 430.493 445.347 436.053 446.831C441.613 448.314 446.65 451.316 450.6 455.5ZM381.6 512.93C375.16 546.87 375.16 588.27 381.05 595.27C382.187 594.858 383.135 594.048 383.72 592.99C386.73 588.82 393.8 571.62 381.62 512.93H381.6Z" fill="white"/>
</g>
<defs>
<clipPath id="clip0_2_2400">
<rect width="1024" height="1024" fill="white"/>
</clipPath>
</defs>
</svg>
